X: 37961
T: Spanish Point
R: waltz
M: 3/4
K: Dmajor
de f4|af e4|dc B4|AG F4|DE F4|G2 A4|dA B4|fd e4|
def4|afe4|dcB4|AGF4|DEF4|dgf4|ade4|dcd4:|
fde4|dgf4|dAB4|AGF4|FGA4|fdB4|dgf4|ade4|
def4|ade4|dcB4|AGF4|DEF4|dgf4|ade4|dcd4:|

